X: 5
T: The Three Sea Captains
R: jig
M: 6/8
L: 1/8
K: Gmaj
D|G3 BGB|c2A F2D|GDG BGB|d2B G2B|
cec A2c|BdB G2B|A2B c2B|ABG FED|
GDG BGB|c2A F2D|GDG BGB|d2B G2B|
cec A2c|BdB G2F|EcB AGF|G3 G2:|
d|gfg dcB|ABc def|gfg dBd|e2c A2d|
g2a bge|f2g afd|e3 ed^c|d3 d2B|
c2d ecA|B2c dBG|A2B c2B|ABG FED|
GDG BGB|c2A F2D|G3 BGB|d2B G2B|
cec A2c|BdB G2F|EcB AGF|G3 G2:|


Tune 147	Setting 12767

